svgs/sharp-regular/table-columns.svg

<svg xmlns="http://www.w3.org/2000/svg" viewBox="0 0 512 512"><!--! Font Awesome Pro 6.6.0 by @fontawesome - https://fontawesome.com License - https://fontawesome.com/license (Commercial License) Copyright 2024 Fonticons, Inc. --><path d="M48 432l0-272 184 0 0 272L48 432zm232 0l0-272 184 0 0 272-184 0zM48 32L0 32 0 80 0 432l0 48 48 0 416 0 48 0 0-48 0-352 0-48-48 0L48 32z"/></svg>

<svg xmlns="http://www.w3.org/2000/svg" viewBox="0 0 512 512"><!--! Font Awesome Pro 6.4.2 by @fontawesome - https://fontawesome.com License - https://fontawesome.com/license (Commercial License) Copyright 2023 Fonticons, Inc. --><path d="M48 432V160H232V432H48zm232 0V160H464V432H280zM48 32H0V80 432v48H48 464h48V432 80 32H464 48z"/></svg>
